X:5900
T:Se\'an \'O Duibhir an Ghleanna
O:england
R:set dance
N:Paddy Glackin's version is missing the third bar of the second part.
D:Paddy Glackin: Ceol ar an bhFidil le Paddy Glackin
D:Willie Clancy
M:C|
K:Dmix
de|f2ge a2ge|fde^c dcde|(3fed (3cAG A2AB|
c2cd ed (3cAG|(3AdB (3cAF G2 {A}(3GFG|A2 (3AAA A2:|
|:AB|c2AB cdef|g2ge a2ag|"this bar not in P.Glackin's version"ab (3agf g2ag|
f2fg afge|fde^c dedc|(3ABA Gc A2de|
f2ge a2ge|fde^c dcde|(3fed (3cAG A2AB|
c2cd ed (3cAG|(3AdB (3cAF G2 {A}(3GFG|A2 (3AAA A2:|
